X:10
T:Anna's Dance
C:Phil Rosenthal
N: Phil Rosenthal's Flying Fish album (FF 078) titled "Indian Summer" Tabledited by Mike Stangeland.
L:1/8
Q:1/4=120
M:4/4
K:D
z6 Ac |: "D"dA FA DA df | "A7"ec GA EG Aa | "D"fd fa "G"ba gf | "A"ed Bc AF EA | 
"D"dA FA DA df | "A7"ec GA EG Aa | "D"fd fa "G"gb "A"ec | "D"df AF D2 fg | "D"ad fa "G"ba gf | 
"A7"gA ce ag fe | "D"fd fa "G"gf ed | "A"ce Gc FA EA | "D"dA FA DA df | "A7"ec GA EG Aa | 
"D"fd fa "G"gb "A"ec |1 "D"df AF D2 cd | "Em"eB GB "Bm"fd ef | "Em"eB GB "Bm"FA "Em"Ee | 
"Bm"fd Af db fd | "A"ec AG EC A,C | "D"DF Ad fD FA | "A7"EA ce ge ce | "D"fd fb "G"ge "A"ac | 
"D"df AF D2 Ac :|2 "D"df AF D4 | 
 

